public/static/illustrations/illustration_empty_content.svg

<svg height="240" viewBox="0 0 327 240" width="327" xmlns="http://www.w3.org/2000/svg" xmlns:xlink="http://www.w3.org/1999/xlink"><defs><linearGradient id="a" x1="19.495903%" x2="77.479035%" y1="70.897978%" y2="18.101149%"><stop offset="0" stop-color="#919eab"/><stop offset="1" stop-color="#919eab" stop-opacity="0"/></linearGradient><rect id="b" height="140" rx="12" width="172"/><mask id="c" fill="#fff"><use fill="#fff" fill-rule="evenodd" xlink:href="#b"/></mask></defs><g fill="none" fill-rule="evenodd"><path d="m0 132.520479c0 27.638106 10.1815403 52.823212 26.9359737 71.857174 19.2210583 21.843031 47.0935619 35.576174 78.1622963 35.622347 13.578251.01963 26.561505-2.591298 38.487224-7.357648 6.166205-2.465429 13.067742-2.182475 19.03991.738459 7.005358 3.42177 14.84987 5.340301 23.13329 5.340301 3.421771 0 6.772658-.329748 10.013996-.95561 9.252171-1.780344 17.671632-5.993216 24.586057-11.96011 4.345413-3.751518 9.910892-5.637147 15.598807-5.630567h.096661c18.795037 0 36.2533-5.821396 50.748033-15.797172 12.958194-8.906839 23.539979-21.130893 30.590445-35.483318 6.146872-12.507009 9.607307-26.635702 9.607307-41.589131 0-51.2870702-40.721149-92.8696204-90.945785-92.8696204-5.120127 0-10.136433.4416131-15.030302 1.2656163-12.958194-21.4211586-36.163084-35.7011999-62.634373-35.7011999-11.176066 0-21.771456 2.54512435-31.255611 7.10748458-9.019469 4.32473732-17.038685 10.47003182-23.598691 17.95917532-22.274804.3626492-42.871301 7.7933009-59.7288387 20.1942932-26.5357289 19.509208-43.8063993 51.3272837-43.8063993 87.2595259z" fill="url(#a)" opacity=".2"/><g fill-rule="nonzero" transform="translate(51 12)"><path d="m139.604706 17.0504412c-2.184706 0-4.368824-.8311765-6.031177-2.4941177-3.325882-3.3258823-3.325882-8.73705877 0-12.06235289 3.324118-3.32470589 8.736471-3.32588236 12.061765 0 3.325882 3.32588235 3.325882 8.73705879 0 12.06235289-1.662353 1.6629412-3.84647 2.4941177-6.030588 2.4941177zm0-11.17117647c-.677647 0-1.355882.25764705-1.872353.77411764-1.031765 1.03176471-1.031765 2.71117647 0 3.74352943 1.032941 1.0317647 2.710588 1.0323529 3.743529 0 1.031765-1.03176472 1.031765-2.71117649 0-3.74352943-.515882-.51588235-1.194117-.77411764-1.871176-.77411764z" fill="#c4cdd5" opacity=".545118"/><path d="m72.5517647 216.193971c-2.1841176 0-4.3688235-.831765-6.0311765-2.494118-3.3258823-3.325882-3.3258823-8.737059 0-12.062353 3.3247059-3.325294 8.7376471-3.325294 12.062353 0 3.3258823 3.325882 3.3258823 8.737059 0 12.062353-1.662353 1.662941-3.8470588 2.494118-6.0311765 2.494118zm0-11.171177c-.6776471 0-1.3558823.257647-1.8723529.774118-1.0317647 1.031764-1.0317647 2.711176 0 3.743529 1.0329411 1.032353 2.7111764 1.032353 3.7441176 0 1.0317647-1.031765 1.0317647-2.711176 0-3.743529-.5158823-.515883-1.1941176-.774118-1.8717647-.774118z" fill="#c4cdd5" opacity=".545118"/><path d="m221.674118 176.021618c-.752353 0-1.505883-.287059-2.079412-.861177l-3.508824-3.508235-3.508823 3.508235c-1.147647 1.148235-3.011177 1.148235-4.158824 0-1.148823-1.148823-1.148823-3.011176 0-4.159412l5.588236-5.588235c1.147647-1.148235 3.011176-1.148235 4.158823 0l5.588235 5.588235c1.148824 1.148824 1.148824 3.011177 0 4.159412-.573529.57353-1.327058.861177-2.079411.861177z" fill="#dfe3e8"/><path d="m14.2258824 164.815735c-.752353 0-1.5058824-.287059-2.0794118-.861176l-3.50882354-3.508235-3.50882353 3.508235c-1.14764706 1.148235-3.01117647 1.148235-4.15882353 0-1.14882353-1.148824-1.14882353-3.011177 0-4.159412l5.58823529-5.588235c1.14764706-1.148236 3.01117647-1.148236 4.15882351 0l5.5882353 5.588235c1.1488235 1.148824 1.1488235 3.011177 0 4.159412-.5741176.573529-1.3270588.861176-2.0794117.861176z" fill="#d5dbe0"/></g><g transform="translate(78 50)"><use fill="#dfe3e8" stroke="#919eab" stroke-opacity=".48" stroke-width="1.5" xlink:href="#b"/><g fill-rule="nonzero"><path d="m166.960938 0c2.82221 0 5.039062 1.75973333 5.039062 4v36h-172v-36c0-2.24026667 2.21685156-4 5.0390625-4zm-140.960938 15c-2.8003333 0-5 2.1996667-5 5 0 2.7996667 2.1996667 5 5 5s5-2.2003333 5-5c0-2.8003333-2.1996667-5-5-5zm20 0c-2.8003333 0-5 2.1996667-5 5 0 2.7996667 2.1996667 5 5 5s5-2.2003333 5-5c0-2.8003333-2.1996667-5-5-5zm20 0c-2.8003333 0-5 2.1996667-5 5 0 2.7996667 2.1996667 5 5 5s5-2.2003333 5-5c0-2.8003333-2.1996667-5-5-5z" fill="#919eab" mask="url(#c)" opacity=".32"/><g stroke="#919eab" stroke-dasharray="2 2" stroke-width="1.2"><path d="m146 54h-50c-2.7636667 0-5 2.2363333-5 5v60c0 2.763667 2.2363333 5 5 5h50c2.763667 0 5-2.236333 5-5v-60c0-2.7636667-2.236333-5-5-5z" fill="#919eab" fill-opacity=".48" mask="url(#c)"/><path d="m26 64h20c2.7636667 0 5-2.2363333 5-5s-2.2363333-5-5-5h-20c-2.7636667 0-5 2.2363333-5 5s2.2363333 5 5 5z" mask="url(#c)" opacity=".72"/><path d="m76 74h-50c-2.7636667 0-5 2.2363333-5 5s2.2363333 5 5 5h50c2.7636667 0 5-2.2363333 5-5s-2.2363333-5-5-5z" mask="url(#c)" opacity=".72"/><path d="m76 94h-50c-2.7636667 0-5 2.2363333-5 5 0 2.763667 2.2363333 5 5 5h50c2.7636667 0 5-2.236333 5-5 0-2.7636667-2.2363333-5-5-5z" mask="url(#c)" opacity=".72"/><path d="m76 114h-50c-2.7636667 0-5 2.236333-5 5s2.2363333 5 5 5h50c2.7636667 0 5-2.236333 5-5s-2.2363333-5-5-5z" mask="url(#c)" opacity=".72"/></g></g></g></g></svg>

<?xml version="1.0" encoding="UTF-8"?>
<svg width="327px" height="240px" viewBox="0 0 327 240" version="1.1" xmlns="http://www.w3.org/2000/svg" xmlns:xlink="http://www.w3.org/1999/xlink">
    <title>__🥭Illustrations/ illustration_empty_content</title>
    <defs>
        <linearGradient x1="19.4959033%" y1="70.8979779%" x2="77.4790349%" y2="18.1011488%" id="linearGradient-1">
            <stop stop-color="#919EAB" offset="0%"></stop>
            <stop stop-color="#919EAB" stop-opacity="0" offset="100%"></stop>
        </linearGradient>
        <rect id="path-2" x="0" y="0" width="172" height="140" rx="12"></rect>
    </defs>
    <g id="__🥭Illustrations/-illustration_empty_content" stroke="none" stroke-width="1" fill="none" fill-rule="evenodd">
        <g id="Group" fill="url(#linearGradient-1)" opacity="0.2">
            <g id="__🥭Illustrations/-X🩸Setup/-Shape_2">
                <path d="M2.84217094e-14,132.520479 C2.84217094e-14,160.158585 10.1815403,185.343691 26.9359737,204.377653 C46.157032,226.220684 74.0295356,239.953827 105.09827,240 C118.676521,240.01963 131.659775,237.408702 143.585494,232.642352 C149.751699,230.176923 156.653236,230.459877 162.625404,233.380811 C169.630762,236.802581 177.475274,238.721112 185.758694,238.721112 C189.180465,238.721112 192.531352,238.391364 195.77269,237.765502 C205.024861,235.985158 213.444322,231.772286 220.358747,225.805392 C224.70416,222.053874 230.269639,220.168245 235.957554,220.174825 L236.054215,220.174825 C254.849252,220.174825 272.307515,214.353429 286.802248,204.377653 C299.760442,195.470814 310.342227,183.24676 317.392693,168.894335 C323.539565,156.387326 327,142.258633 327,127.305204 C327,76.0181338 286.278851,34.4355836 236.054215,34.4355836 C230.934088,34.4355836 225.917782,34.8771967 221.023913,35.7011999 C208.065719,14.2800413 184.860829,0 158.38954,0 C147.213474,0 136.618084,2.54512435 127.133929,7.10748458 C118.11446,11.4322219 110.095244,17.5775164 103.535238,25.0666599 C81.260434,25.4293091 60.663937,32.8599608 43.8063993,45.2609531 C17.2706704,64.7701611 2.84217094e-14,96.5882368 2.84217094e-14,132.520479 Z" id="background"></path>
            </g>
        </g>
        <g id="#gr" transform="translate(51.000000, 12.000000)" fill-rule="nonzero">
            <path d="M139.604706,17.0504412 C137.42,17.0504412 135.235882,16.2192647 133.573529,14.5563235 C130.247647,11.2304412 130.247647,5.81926473 133.573529,2.49397061 C136.897647,-0.830735275 142.31,-0.831911745 145.635294,2.49397061 C148.961176,5.81985296 148.961176,11.2310294 145.635294,14.5563235 C143.972941,16.2192647 141.788824,17.0504412 139.604706,17.0504412 Z M139.604706,5.87926473 C138.927059,5.87926473 138.248824,6.13691178 137.732353,6.65338237 C136.700588,7.68514708 136.700588,9.36455884 137.732353,10.3969118 C138.765294,11.4286765 140.442941,11.4292647 141.475882,10.3969118 C142.507647,9.36514708 142.507647,7.68573531 141.475882,6.65338237 C140.96,6.13750002 140.281765,5.87926473 139.604706,5.87926473 L139.604706,5.87926473 Z" id="Shape" fill="#C4CDD5" opacity="0.545118059"></path>
            <path d="M72.5517647,216.193971 C70.3676471,216.193971 68.1829412,215.362206 66.5205882,213.699853 C63.1947059,210.373971 63.1947059,204.962794 66.5205882,201.6375 C69.8452941,198.312206 75.2582353,198.312206 78.5829412,201.6375 C81.9088235,204.963382 81.9088235,210.374559 78.5829412,213.699853 C76.9205882,215.362794 74.7358824,216.193971 72.5517647,216.193971 L72.5517647,216.193971 Z M72.5517647,205.022794 C71.8741176,205.022794 71.1958824,205.280441 70.6794118,205.796912 C69.6476471,206.828676 69.6476471,208.508088 70.6794118,209.540441 C71.7123529,210.572794 73.3905882,210.572794 74.4235294,209.540441 C75.4552941,208.508676 75.4552941,206.829265 74.4235294,205.796912 C73.9076471,205.281029 73.2294118,205.022794 72.5517647,205.022794 L72.5517647,205.022794 Z" id="Shape" fill="#C4CDD5" opacity="0.545118059"></path>
            <path d="M221.674118,176.021618 C220.921765,176.021618 220.168235,175.734559 219.594706,175.160441 L216.085882,171.652206 L212.577059,175.160441 C211.429412,176.308676 209.565882,176.308676 208.418235,175.160441 C207.269412,174.011618 207.269412,172.149265 208.418235,171.001029 L214.006471,165.412794 C215.154118,164.264559 217.017647,164.264559 218.165294,165.412794 L223.753529,171.001029 C224.902353,172.149853 224.902353,174.012206 223.753529,175.160441 C223.18,175.733971 222.426471,176.021618 221.674118,176.021618 Z" id="Path" fill="#DFE3E8"></path>
            <path d="M14.2258824,164.815735 C13.4735294,164.815735 12.72,164.528676 12.1464706,163.954559 L8.63764706,160.446324 L5.12882353,163.954559 C3.98117647,165.102794 2.11764706,165.102794 0.97,163.954559 C-0.178823529,162.805735 -0.178823529,160.943382 0.97,159.795147 L6.55823529,154.206912 C7.70588235,153.058676 9.56941176,153.058676 10.7170588,154.206912 L16.3052941,159.795147 C17.4541176,160.943971 17.4541176,162.806324 16.3052941,163.954559 C15.7311765,164.528088 14.9782353,164.815735 14.2258824,164.815735 Z" id="Path" fill="#D5DBE0"></path>
        </g>
        <g id="#gr" transform="translate(78.000000, 50.000000)">
            <mask id="mask-3" fill="white">
                <use xlink:href="#path-2"></use>
            </mask>
            <use id="mask" stroke-opacity="0.48" stroke="#919EAB" stroke-width="1.5" fill="#DFE3E8" xlink:href="#path-2"></use>
            <path d="M166.960938,0 C169.783148,0 172,1.75973333 172,4 L172,4 L172,40 L0,40 L0,4 C0,1.75973333 2.21685156,0 5.0390625,0 L5.0390625,0 Z M26,15 C23.1996667,15 21,17.1996667 21,20 C21,22.7996667 23.1996667,25 26,25 C28.8003333,25 31,22.7996667 31,20 C31,17.1996667 28.8003333,15 26,15 Z M46,15 C43.1996667,15 41,17.1996667 41,20 C41,22.7996667 43.1996667,25 46,25 C48.8003333,25 51,22.7996667 51,20 C51,17.1996667 48.8003333,15 46,15 Z M66,15 C63.1996667,15 61,17.1996667 61,20 C61,22.7996667 63.1996667,25 66,25 C68.8003333,25 71,22.7996667 71,20 C71,17.1996667 68.8003333,15 66,15 Z" id="Combined-Shape" fill="#919EAB" fill-rule="nonzero" opacity="0.32" mask="url(#mask-3)"></path>
            <path d="M146,54 L96,54 C93.2363333,54 91,56.2363333 91,59 L91,119 C91,121.763667 93.2363333,124 96,124 L146,124 C148.763667,124 151,121.763667 151,119 L151,59 C151,56.2363333 148.763667,54 146,54 Z" id="Path" stroke="#919EAB" stroke-width="1.2" fill-opacity="0.48" fill="#919EAB" fill-rule="nonzero" stroke-dasharray="2,2" mask="url(#mask-3)"></path>
            <path d="M26,64 L46,64 C48.7636667,64 51,61.7636667 51,59 C51,56.2363333 48.7636667,54 46,54 L26,54 C23.2363333,54 21,56.2363333 21,59 C21,61.7636667 23.2363333,64 26,64 Z" id="Path" stroke="#919EAB" stroke-width="1.2" opacity="0.72" stroke-dasharray="2,2" fill-rule="nonzero" mask="url(#mask-3)"></path>
            <path d="M76,74 L26,74 C23.2363333,74 21,76.2363333 21,79 C21,81.7636667 23.2363333,84 26,84 L76,84 C78.7636667,84 81,81.7636667 81,79 C81,76.2363333 78.7636667,74 76,74 Z" id="Path" stroke="#919EAB" stroke-width="1.2" opacity="0.72" stroke-dasharray="2,2" fill-rule="nonzero" mask="url(#mask-3)"></path>
            <path d="M76,94 L26,94 C23.2363333,94 21,96.2363333 21,99 C21,101.763667 23.2363333,104 26,104 L76,104 C78.7636667,104 81,101.763667 81,99 C81,96.2363333 78.7636667,94 76,94 Z" id="Path" stroke="#919EAB" stroke-width="1.2" opacity="0.72" stroke-dasharray="2,2" fill-rule="nonzero" mask="url(#mask-3)"></path>
            <path d="M76,114 L26,114 C23.2363333,114 21,116.236333 21,119 C21,121.763667 23.2363333,124 26,124 L76,124 C78.7636667,124 81,121.763667 81,119 C81,116.236333 78.7636667,114 76,114 Z" id="Path" stroke="#919EAB" stroke-width="1.2" opacity="0.72" stroke-dasharray="2,2" fill-rule="nonzero" mask="url(#mask-3)"></path>
        </g>
    </g>
</svg>
